!!!OTL: WAS HOERT MAN DENN NEUES VOM KRIEGEN
!!!ARE: Europa, Mitteleuropa, Deutschland, Hessen, Taunus
!!!SCT: E1404
!!!YEM: Copyright 1995, estate of Helmut Schaffrath.
**kern
*ICvox
*Ivox
*M6/8
*k[f#]
*G:
{8d
=1
8.b
16b
8b
8b
8a
8g
=2
8g
4f#
4r}
{16a
16b
=3
8.cc
16dd
8ee
8.a
16a
8a
=4
4.b
4r}
{8d
=5
8.b
16b
8b
8b
8a
8g
=6
8g
4f#
4r}
{16a
16b
=7
8.cc
16dd
8ee
8.a
16a
8a
=8
4.b
4r}
{8g
=9
8.cc#
16cc#
8cc#
8cc#
8b
8a
=10
8dd
4dd
4r}
{8g
=11
8.cc#
16cc#
8cc#
8cc#
8b
8a
=12
8dd
4dd
4r}
{8dd
=13
8.b
16b
8b
8b
8cc
8dd
=14
4.ee
4r}
{8ee
=15
8.dd
16dd
8dd
8ff#
8a
8cc
=16
4.b
4r}
==
!!!AGN: Staende -, Soldaten - Lied, Klage, anti - Kriegs - Lied
!!!ONB: ESAC (Essen Associative Code) Database: ERK3
!!!AMT: compound duple
!!!AIN: vox
!!!EED: Helmut Schaffrath
!!!EEV: 1.0
*-
